assets/flags/MY.svg

<?xml version="1.0" encoding="UTF-8"?>
<svg width="21px" height="15px" viewBox="0 0 21 15" version="1.1" xmlns="http://www.w3.org/2000/svg" xmlns:xlink="http://www.w3.org/1999/xlink">
    <!-- Generator: sketchtool 46 (44423) - http://www.bohemiancoding.com/sketch -->
    <title>MY</title>
    <desc>Created with sketchtool.</desc>
    <defs>
        <linearGradient x1="50%" y1="0%" x2="50%" y2="100%" id="linearGradient-1">
            <stop stop-color="#FFFFFF" offset="0%"></stop>
            <stop stop-color="#F0F0F0" offset="100%"></stop>
        </linearGradient>
        <linearGradient x1="50%" y1="0%" x2="50%" y2="100%" id="linearGradient-2">
            <stop stop-color="#E1244A" offset="0%"></stop>
            <stop stop-color="#BE1134" offset="100%"></stop>
        </linearGradient>
        <linearGradient x1="50%" y1="0%" x2="50%" y2="100%" id="linearGradient-3">
            <stop stop-color="#0C3F8E" offset="0%"></stop>
            <stop stop-color="#032A67" offset="100%"></stop>
        </linearGradient>
        <linearGradient x1="50%" y1="0%" x2="50%" y2="100%" id="linearGradient-4">
            <stop stop-color="#FFD34F" offset="0%"></stop>
            <stop stop-color="#FFCB2F" offset="100%"></stop>
        </linearGradient>
    </defs>
    <g id="Symbols" stroke="none" stroke-width="1" fill="none" fill-rule="evenodd">
        <g id="MY">
            <rect id="FlagBackground" fill="url(#linearGradient-1)" x="0" y="0" width="21" height="15"></rect>
            <path d="M10,0 L21,0 L21,1 L10,1 L10,0 Z M10,2 L21,2 L21,3 L10,3 L10,2 Z M10,4 L21,4 L21,5 L10,5 L10,4 Z M10,6 L21,6 L21,7 L10,7 L10,6 Z M0,8 L21,8 L21,9 L0,9 L0,8 Z M0,10 L21,10 L21,11 L0,11 L0,10 Z M0,12 L21,12 L21,13 L0,13 L0,12 Z M0,14 L21,14 L21,15 L0,15 L0,14 Z" id="Rectangle-537" fill="url(#linearGradient-2)"></path>
            <rect id="Rectangle-1568" fill="url(#linearGradient-3)" x="0" y="0" width="12" height="8"></rect>
            <path d="M6.87363497,1.6568923 C6.60168078,1.55545057 6.30731598,1.5 6,1.5 C4.61928813,1.5 3.5,2.61928813 3.5,4 C3.5,5.38071187 4.61928813,6.5 6,6.5 C6.30731598,6.5 6.60168078,6.44454943 6.87363497,6.3431077 C6.36024587,6.75416668 5.70883166,7 5,7 C3.34314575,7 2,5.65685425 2,4 C2,2.34314575 3.34314575,1 5,1 C5.70883166,1 6.36024587,1.24583332 6.87363497,1.6568923 Z M8,4.81999999 L7.13223252,5.80193774 L7.35889819,4.51126163 L6.05014418,4.44504187 L7.20055912,3.81753284 L6.43633704,2.7530204 L7.64421534,3.26120553 L8,2 L8.35578466,3.26120553 L9.56366296,2.7530204 L8.79944088,3.81753284 L9.94985582,4.44504187 L8.64110181,4.51126163 L8.86776748,5.80193774 L8,4.81999999 Z" id="Oval-12" fill="url(#linearGradient-4)"></path>
        </g>
    </g>
</svg>

<svg width="21" height="15" xmlns="http://www.w3.org/2000/svg"><defs><linearGradient x1="50%" y1="0%" x2="50%" y2="100%" id="a"><stop stop-color="#FFF" offset="0%"/><stop stop-color="#F0F0F0" offset="100%"/></linearGradient><linearGradient x1="50%" y1="0%" x2="50%" y2="100%" id="b"><stop stop-color="#E1244A" offset="0%"/><stop stop-color="#BE1134" offset="100%"/></linearGradient><linearGradient x1="50%" y1="0%" x2="50%" y2="100%" id="c"><stop stop-color="#0C3F8E" offset="0%"/><stop stop-color="#032A67" offset="100%"/></linearGradient><linearGradient x1="50%" y1="0%" x2="50%" y2="100%" id="d"><stop stop-color="#FFD34F" offset="0%"/><stop stop-color="#FFCB2F" offset="100%"/></linearGradient></defs><g fill="none" fill-rule="evenodd"><path fill="url(#a)" d="M0 0h21v15H0z"/><path d="M10 0h11v1H10V0zm0 2h11v1H10V2zm0 2h11v1H10V4zm0 2h11v1H10V6zM0 8h21v1H0V8zm0 2h21v1H0v-1zm0 2h21v1H0v-1zm0 2h21v1H0v-1z" fill="url(#b)"/><path fill="url(#c)" d="M0 0h12v8H0z"/><path d="M6.874 1.657a2.5 2.5 0 1 0 0 4.686 3 3 0 1 1 0-4.686zM8 4.82l-.868.982.227-1.29-1.309-.067 1.15-.627-.764-1.065 1.208.508L8 2l.356 1.261 1.208-.508-.765 1.065 1.15.627-1.308.066.227 1.29L8 4.82z" fill="url(#d)"/></g></svg>
